X: 8
T: Inventio 8
C: Johann Sebastian Bach
%%abc-version 2.0
%%abcx-abcm2ps-target-version 5.9.1 (29 Sep 2008)
%%abc-creator hum2abc beta
%%abcx-conversion-date 2021/01/28 10:10:55
%%abc-copyright Copyright 1994, David Huron
%%abc-edited-by David Huron
%%abcx-initial-encoding-date 1986 November
%%gracespace 0 6 6
%%humdrum-veritas 610192498
%%humdrum-veritas-data 1219665483
%%linebreak <none>
%%barnumbers 0
L: 1/16
M: 3/4
N: Derived from inven08.krn
Q: 1/4=116
%%staves {1 2}
V: 1 clef=treble
V: 2 clef=bass
K: F
[V:1] z2 F2 A2 F2 c2 F2 | 
[V:2] z12 | 
[V:1] f2 e d c d c B A B A G | 
[V:2] z2 F,2 A,2 F,2 C2 F,2 | 
[V:1] F2 A2 c2 A2 f2 c2 | 
[V:2] F2 E D C D C B, A, B, A, G, | 
[V:1] a c' b c' a c' b c' a c' b c' | 
[V:2] F,2 A,2 C2 A,2 F2 C2 | 
[V:1] f a g a f a g a f a g a | 
[V:2] A c B c A c B c A c B c | 
[V:1] d f e f d f e f d f e f | 
[V:2] F A G A F A G A F A G A | 
[V:1] =B2 G2 d2 B2 f2 d2 | 
[V:2] D F E F D F E F D F E F | 
[V:1] g a g f e f e d c d c B | 
[V:2] =B,2 G,2 C2 G,2 E2 C2 | 
[V:1] A2 d c =B c B A G A G F | 
[V:2] F G F E D E D C =B, C B, A, | 
[V:1] E F E D C2 c =B c2 E2 | 
[V:2] G,2 C =B, A, B, A, G, F, G, F, E, | 
[V:1] F2 c2 E2 c2 D2 =B2 | 
[V:2] D, E, D, C, G, F, E, F, G,2 G,,2 | 
[V:1] c4z4z4 | 
[V:2] z2 C,2 E,2 C,2 G,2 C,2 | 
[V:1] z2 c2 e2 c2 g2 c2 | 
[V:2] C2 =B, A, G, A, G, F, E, F, E, D, | 
[V:1] c'2 =b a g a g f e f e d | 
[V:2] C,2 E,2 G,2 E,2 C2 G,2 | 
[V:1] c B c a c a B a c a A a | 
[V:2] _E2 ^F,2 E2 F,2 E2 F,2 | 
[V:1] B2 G2 B2 G2 d2 G2 | 
[V:2] G,2 =F, _E, D, E, D, C, B,, C, B,, A,, | 
[V:1] g2 f _e d e d c B c B A | 
[V:2] G,,2 G,2 B,2 G,2 D2 G,2 | 
[V:1] G2 B2 d2 B2 g2 d2 | 
[V:2] G2 F _E D E D C B, C B, A, | 
[V:1] b2 ^c2 b2 c2 b2 c2 | 
[V:2] G, F, G, =E G, E F, E G, E E, E | 
[V:1] d2 A2 f2 d2 a2 f2 | 
[V:2] F, E, F, D F, D E, D F, D D, D | 
[V:1] g f g b c b d b e b c b | 
[V:2] B,2 G,2 E,2 G,2 C,2 E,2 | 
[V:1] f e f a =B a ^c a d a B a | 
[V:2] A,2 F,2 D,2 F,2 =B,,2 D,2 | 
[V:1] e d e g A g =B g ^c g A g | 
[V:2] G,2 E,2 ^C,2 E,2 A,,2 C,2 | 
[V:1] f2 d2 B2 d2 G2 f2 | 
[V:2] D,, D, =C, D, G,, D, A,, D, B,, D, G,, D, | 
[V:1] e2 c2 A2 c2 F2 _e2 | 
[V:2] C,, C, B,, C, F,, C, G,, C, A,, C, F,, C, | 
[V:1] d f _e f d f e f d f e f | 
[V:2] B,,2 D,2 F,2 D,2 B,2 F,2 | 
[V:1] B d c d B d c d B d c d | 
[V:2] D F _E F D F E F D F E F | 
[V:1] G B A B G B A B G B A B | 
[V:2] B, D C D B, D C D B, D C D | 
[V:1] E2 C2 G2 E2 B2 G2 | 
[V:2] G, B, A, B, G, B, A, B, G, B, A, B, | 
[V:1] c d c B A B A G F G F _E | 
[V:2] E,2 C,2 F,2 C,2 A,2 F,2 | 
[V:1] D2 G F E F E D C D C B, | 
[V:2] B, C B, A, G, A, G, F, E, F, E, D, | 
[V:1] A, B, A, G, F,2 F E F2 A,2 | 
[V:2] C,2 F, E, D, E, D, C, B,, C, B,, A,, | 
[V:1] B,2 F2 A,2 F2 G,2 E2 | 
[V:2] G,, A,, G,, F,, C, B,, A,, B,, C,2 C,,2 | 
[V:1] [A,4C4F4]z4z4 |]  
[V:2] F,,4z4z4 |]  


